X:1
T:Tell All the World, John
M:4/4
L:1/4
K:F
 A/2 G F/2 A C| A/2 G F/2 F G| A/2 G F/2 A C| F/2 F F/2F/2 D/2B,/2 D/2|\
 E E F F| c c B A| B c A/2- F3/2| F/2 F F/2F/2 D/2B,/2 D/2| E E F F|\
 c c B B/2A/2| B c A/2- F3/2| F/2 F F/2F/2 D/2B,/2 D/2| E E F2|

